X: 4
T: Morrison's 
M: 6/8
L: 1/8
R: jig
K: G Major
|: z |
c3 B3 | AGA BGE | DEG AGA | BdB AGE |
c3 B3 | AGA BGE | DEG AGA | BGF G2 :|
|: D |
GBd gdd | edd gdB | GBd gdB | AGA BGE |
GBd gdd | ede gdB | GAB AGA | BGF G2 :|
